X:1
T: Glen Janet
C:Bruce Shawyer
R:Jig
I:speed 180
K:A
M:6/8
L:1/16
|:c2|A4c2 c2A2c2|e2c2A2 e2c2A2|f2d2B2 B2c2A2|G2F2E2 G2F2E2|
A4c2 c2A2c2|e2c2e2 a6|f2d2f2 g2e2g2|a2e2c2 A4:|
|:a2|c'2b2a2 b4g2|a2g2f2 e4e2|a2g2a2 f4a2|g2e2c2 c4c2|
f2d2f2 g2e2g2|a2g2f2 e4e2|e2a2e2 f2e2d2|c2d2B2 A4:|
